shorty/img/usage/arrow.svg

<?xml version="1.0" encoding="UTF-8" standalone="no"?>
<!-- Created using Karbon, part of Calligra: http://www.calligra.org/karbon -->

<svg
   xmlns:dc="http://purl.org/dc/elements/1.1/"
   xmlns:cc="http://creativecommons.org/ns#"
   xmlns:rdf="http://www.w3.org/1999/02/22-rdf-syntax-ns#"
   xmlns:svg="http://www.w3.org/2000/svg"
   xmlns="http://www.w3.org/2000/svg"
   xmlns:xlink="http://www.w3.org/1999/xlink"
   xmlns:sodipodi="http://sodipodi.sourceforge.net/DTD/sodipodi-0.dtd"
   xmlns:inkscape="http://www.inkscape.org/namespaces/inkscape"
   width="64"
   height="64"
   id="svg3020"
   version="1.1"
   inkscape:version="0.48.4 r9939"
   sodipodi:docname="_.svg">
  <title
     id="title3557">_</title>
  <metadata
     id="metadata3037">
    <rdf:RDF>
      <cc:Work
         rdf:about="">
        <dc:format>image/svg+xml</dc:format>
        <dc:type
           rdf:resource="http://purl.org/dc/dcmitype/StillImage" />
        <cc:license
           rdf:resource="http://creativecommons.org/licenses/by-nc-sa/3.0/" />
        <dc:title>_</dc:title>
        <dc:creator>
          <cc:Agent>
            <dc:title>Christian Reiner</dc:title>
          </cc:Agent>
        </dc:creator>
        <dc:rights>
          <cc:Agent>
            <dc:title>Copyright 2012, Christian Reiner, Hamburg, Germany</dc:title>
          </cc:Agent>
        </dc:rights>
        <dc:publisher>
          <cc:Agent>
            <dc:title>Christian Reiner</dc:title>
          </cc:Agent>
        </dc:publisher>
        <dc:subject>
          <rdf:Bag>
            <rdf:li>_</rdf:li>
            <rdf:li>usage</rdf:li>
          </rdf:Bag>
        </dc:subject>
      </cc:Work>
      <cc:License
         rdf:about="http://creativecommons.org/licenses/by-nc-sa/3.0/">
        <cc:permits
           rdf:resource="http://creativecommons.org/ns#Reproduction" />
        <cc:permits
           rdf:resource="http://creativecommons.org/ns#Distribution" />
        <cc:requires
           rdf:resource="http://creativecommons.org/ns#Notice" />
        <cc:requires
           rdf:resource="http://creativecommons.org/ns#Attribution" />
        <cc:prohibits
           rdf:resource="http://creativecommons.org/ns#CommercialUse" />
        <cc:permits
           rdf:resource="http://creativecommons.org/ns#DerivativeWorks" />
        <cc:requires
           rdf:resource="http://creativecommons.org/ns#ShareAlike" />
      </cc:License>
    </rdf:RDF>
  </metadata>
  <sodipodi:namedview
     pagecolor="#ffffff"
     bordercolor="#666666"
     borderopacity="1"
     objecttolerance="10"
     gridtolerance="10"
     guidetolerance="10"
     inkscape:pageopacity="0"
     inkscape:pageshadow="2"
     inkscape:window-width="1920"
     inkscape:window-height="1114"
     id="namedview3035"
     showgrid="false"
     inkscape:zoom="11.206576"
     inkscape:cx="29.581514"
     inkscape:cy="28.779418"
     inkscape:window-x="-4"
     inkscape:window-y="-4"
     inkscape:window-maximized="1"
     inkscape:current-layer="svg3020" />
  <defs
     id="defs3022">
    <linearGradient
       id="gradient0"
       gradientTransform="matrix(0.935714,0,0,0.971429,-260.198,309.044)"
       gradientUnits="objectBoundingBox"
       x1="1.860629"
       y1="-2.2881174"
       x2="1.8891802"
       y2="-1.0919917"
       spreadMethod="pad">
      <stop
         stop-color="#edf4fd"
         offset="0"
         stop-opacity="0.52845044633"
         id="stop3025"
         style="stop-color:#eef4fd;stop-opacity:0.52845043;" />
      <stop
         stop-color="#175bb3"
         offset="1.00000000000"
         stop-opacity="0.00000000000"
         id="stop3027" />
    </linearGradient>
    <linearGradient
       inkscape:collect="always"
       xlink:href="#gradient0"
       id="linearGradient3787"
       gradientUnits="userSpaceOnUse"
       gradientTransform="scale(1.2307282,0.81252711)"
       spreadMethod="pad"
       x1="310.29999"
       y1="-381.5929"
       x2="315.06152"
       y2="-182.11314" />
    <radialGradient
       inkscape:collect="always"
       xlink:href="#gradient0"
       id="radialGradient6130"
       cx="31.997753"
       cy="21.222061"
       fx="31.997753"
       fy="21.222061"
       r="29.944143"
       gradientTransform="matrix(0.93444017,0,0,0.48806265,2.0977673,4.2611009)"
       gradientUnits="userSpaceOnUse" />
  </defs>
  <g
     id="text4182"
     transform="matrix(0.38466862,0,0,0.37986865,25.704051,11.607889)"
     style="fill:none" />
  <g
     id="g6132">
    <path
       style="fill:#000000"
       inkscape:connector-curvature="0"
       d="m 63.998188,32.00176 c 0,17.672471 -14.326473,31.99882 -31.999097,31.99882 C 14.326496,64.00058 -5.94477e-6,49.674231 -5.94477e-6,32.00176 -5.94477e-6,14.329318 14.326496,0.00293953 31.999091,0.00293953 c 17.672624,0 31.999097,14.32637847 31.999097,31.99882047 z"
       id="path4167" />
    <path
       style="fill:#000000"
       inkscape:connector-curvature="0"
       d="m 61.941058,32.400768 c 0,16.953474 -13.405476,30.696962 -29.94199,30.696962 -16.536487,0 -29.9419893,-13.743488 -29.9419893,-30.696962 0,-16.953447 13.4055023,-30.6969628 29.9419893,-30.6969628 16.536514,0 29.94199,13.7435158 29.94199,30.6969628 z"
       id="path4169" />
    <path
       style="fill:url(#radialGradient6130);fill-opacity:1"
       inkscape:connector-curvature="0"
       d="m 31.997694,0.0041785 c -15.452384,0 -27.980952,10.2944605 -27.980952,22.9858205 0,0.809537 0.05395,1.605267 0.1533662,2.393018 13.6507788,4.039268 34.5127478,6.982114 55.8085348,-2.285166 2.73e-4,-0.0358 0,-0.07161 0,-0.107852 0,-12.69136 -12.528648,-22.9858205 -27.980949,-22.9858205 z"
       id="path4171" />
  </g>
  <g
     id="g4149"
     transform="matrix(0.36142139,0,0,0.31081291,16.000009,15.989437)"
     style="fill:none">
    <path
       id="path4138"
       transform="matrix(-0.168373,-0.438415,0.36134,-0.202146,27.838,126.426)"
       d="M 160.243,0.00621995 C 156.111,0.109866 152.106,1.44866 148.743,3.84997 L 8.68012,103.631 C 2.66423,107.918 -0.608526,115.089 0.0939771,122.442 0.79648,129.796 5.36759,136.217 12.0864,139.287 l 156.4376,71.407 c 6.722,3.072 14.573,2.324 20.594,-1.963 6.021,-4.287 9.297,-11.461 8.593,-18.819 L 181.336,18.725 C 180.308,7.91607 171.097,-0.257837 160.243,0.00621995 z"
       inkscape:connector-curvature="0"
       style="fill:#eeeeee" />
    <rect
       id="rect4143"
       transform="matrix(0.624447,0,0,0.610576,81.3708,26.8172)"
       width="20.36692"
       height="78.334312"
       rx="10.18346"
       ry="19.504995"
       x="0"
       y="0"
       style="fill:#eeeeee" />
  </g>
</svg>

<?xml version="1.0" encoding="UTF-8" standalone="no"?>
<svg xmlns:rdf="http://www.w3.org/1999/02/22-rdf-syntax-ns#" xmlns="http://www.w3.org/2000/svg" height="64" width="64" version="1.1" xmlns:cc="http://creativecommons.org/ns#" xmlns:xlink="http://www.w3.org/1999/xlink" xmlns:dc="http://purl.org/dc/elements/1.1/">
 <title>_</title>
 <defs>
  <radialGradient id="a" gradientUnits="userSpaceOnUse" cy="21.222" cx="31.998" gradientTransform="matrix(.93444 0 0 .48806 2.0978 4.2611)" r="29.944">
   <stop stop-color="#eef4fd" stop-opacity=".52845" offset="0"/>
   <stop stop-color="#175bb3" stop-opacity="0" offset="1"/>
  </radialGradient>
 </defs>
 <path d="m63.998 32.002c0 17.672-14.326 31.999-31.999 31.999s-31.999-14.327-31.999-31.999c-0.0000059448-17.673 14.326-31.999 31.999-31.999s31.999 14.326 31.999 31.999z"/>
 <path d="m61.941 32.401c0 16.953-13.405 30.697-29.942 30.697-16.536 0-29.942-13.743-29.942-30.697 0-16.953 13.406-30.697 29.942-30.697 16.537 0 29.942 13.744 29.942 30.697z"/>
 <path d="m31.998 0.0041785c-15.452 0-27.981 10.294-27.981 22.986 0 0.80954 0.05395 1.6053 0.15337 2.393 13.651 4.0393 34.513 6.9821 55.809-2.2852 0.000273-0.0358 0-0.07161 0-0.10785 0-12.691-12.529-22.986-27.981-22.986z" fill="url(#a)"/>
 <g fill="#eee" transform="matrix(.36142 0 0 .31081 16 15.989)">
  <path d="m160.24 0.00622c-4.13 0.10365-8.13 1.4425-11.5 3.8438l-140.06 99.78c-6.0158 4.29-9.2885 11.46-8.586 18.81 0.70248 7.36 5.2736 13.78 11.992 16.85l156.44 71.407c6.722 3.072 14.573 2.324 20.594-1.963s9.297-11.461 8.593-18.819l-16.38-171.2c-1.03-10.804-10.24-18.978-21.1-18.714z" transform="matrix(-.16837 -.43842 .36134 -.20215 27.838 126.43)"/>
  <rect transform="matrix(.62445 0 0 .61058 81.371 26.817)" rx="10.183" ry="19.505" height="78.334" width="20.367" y="0" x="0"/>
 </g>
</svg>
